64x64/apps/nsight.svg

<svg height="64" width="64" xmlns="http://www.w3.org/2000/svg"><rect height="48" opacity=".2" rx="24" transform="matrix(0 -1 -1 0 0 0)" width="48" x="-56" y="-56"/><rect fill="#4ca341" height="48" rx="24" transform="matrix(0 -1 -1 0 0 0)" width="48" x="-55" y="-56"/><path d="m32 7c-13.296 0-24 10.704-24 24 0 .112.012.221.018.332.352-12.984 10.91-23.332 23.982-23.332s23.63 10.348 23.982 23.332c.006-.11.018-.22.018-.332 0-13.296-10.704-24-24-24z" fill="#f4f4f7" opacity=".2"/><path d="m32 4a28 28 0 0 0 -13 3.219 28 28 0 0 1 15 24.781 28 28 0 0 1 -15 24.781 28 28 0 0 0 13 3.219 28 28 0 0 0 28-28 28 28 0 0 0 -28-28z" opacity=".2"/><g fill="#f4f4f7"><path d="m32 3a28 28 0 0 0 -13 3.219 28 28 0 0 1 15 24.781 28 28 0 0 1 -15 24.781 28 28 0 0 0 13 3.219 28 28 0 0 0 28-28 28 28 0 0 0 -28-28z"/><path d="m32 3a28 28 0 0 0 -13 3.219 28 28 0 0 1 .94.554 28 28 0 0 1 12.06-2.773 28 28 0 0 1 27.979 27.586 28 28 0 0 0 .021-.586 28 28 0 0 0 -28-28zm1.977 28.463a28 28 0 0 1 -14.977 24.317 28 28 0 0 0 .957.8" opacity=".2"/></g></svg>

<svg height="64" width="64" xmlns="http://www.w3.org/2000/svg">
    <rect height="48" opacity=".2" rx="24" transform="matrix(0 -1 -1 0 0 0)" width="48" x="-56" y="-56"/>
    <rect fill="#4ca341" height="48" rx="24" transform="matrix(0 -1 -1 0 0 0)" width="48" x="-55" y="-56"/>
    <path d="M32 7C18.704 7 8 17.704 8 31c0 .112.012.221.018.332C8.37 18.348 18.928 8 32 8s23.63 10.348 23.982 23.332c.006-.11.018-.22.018-.332C56 17.704 45.296 7 32 7z" fill="#f4f4f7" opacity=".2"/>
    <path d="M32 4a28 28 0 0 0-13 3.219A28 28 0 0 1 34 32a28 28 0 0 1-15 24.781A28 28 0 0 0 32 60a28 28 0 0 0 28-28A28 28 0 0 0 32 4z" opacity=".2"/>
    <g fill="#f4f4f7">
        <path d="M32 3a28 28 0 0 0-13 3.219A28 28 0 0 1 34 31a28 28 0 0 1-15 24.781A28 28 0 0 0 32 59a28 28 0 0 0 28-28A28 28 0 0 0 32 3z"/>
        <path d="M32 3a28 28 0 0 0-13 3.219 28 28 0 0 1 .94.554A28 28 0 0 1 32 4a28 28 0 0 1 27.979 27.586A28 28 0 0 0 60 31 28 28 0 0 0 32 3zm1.977 28.463A28 28 0 0 1 19 55.78a28 28 0 0 0 .957.8" opacity=".2"/>
    </g>
</svg>
